X:1
T:Title
%%score { 1 | ( 2 3 ) }
L:1/8
Q:1/4=100
M:3/4
K:Db
V:1 treble nm="Grand Piano"
V:2 bass 
V:3 bass 
V:1
 F3 F ED | F[FA] [FA]4 | [FA][DF] [DF]4 | [CE]D D4 | F3 F ED | F[FA] [FA]4 | %6
w: Charles~Gabriel * * *||||||
 [Fd][DFA] [DFA]3 [DF] | [G,CE][F,D] [F,D]4 | [Fd]3 [Ge] [Fd][DFA] | [DGB][DGd] [DFA]4 | %10
w: ||||
 [Fd]3 [Ge] [Fd][FA] | FD [CE]4 | F3 F ED | F[FA] [FA]4 | [Fd][FA] [FA]3 [DF] | [CE]D D4 |] %16
w: ||||||
V:2
 [D,A,D]3 [D,A,D] [D,A,D][D,F,] | [D,A,D][D,D] [D,D]4 | [D,D][D,A,] [D,A,]4 | %3
 [A,,G,][D,F,] [D,F,]4 | [D,A,D]3 [D,A,D] [D,G,D][D,F,] | [D,A,D][D,D] [D,D]4 | [D,A,]D, z2 z A, | %7
 A,,D, D,4 | [D,A,]3 [D,A,] [D,A,]D, | G,,B,, D,4 | [D,A,]3 [D,A,] [D,A,][D,D] | %11
 [D,A,D][D,F,] [A,,A,]4 | [D,A,D]3 [D,A,D] [D,G,D][D,F,] | [D,A,D][D,D] [D,D]4 | %14
 [D,A,][D,D] [D,D]3 [D,A,] | [A,,G,][D,F,A,] [D,F,A,]4 |] %16
V:3
 x6 | x6 | x6 | x6 | x6 | x6 | z2 D,4 | x6 | x6 | x6 | x6 | x6 | x6 | x6 | x6 | x6 |] %16

